X: 3309
T: Den store Hamborg
B:[[Notböcker/Melodier til gamle danske Almuedanse for Violin solo]]
O:Danmark
Z:Søren Bak Vestergaard
M: 2/4
L: 1/8
K: G
B2 BA/B/|G2 D2|c2 cB/c/|ed dc|B2 BA/B/|G2 D2|\
BA/B/ cF/G/|(.A.G)G z:| |:BAGF|(.A.G) D2|BA/B/ cB/c/|\
ed dc|BAGF|(.A.G) D2|BA/B/ cF/G/|(.A.G)G z:|
(:musicend:)
(:music:)
